Obsidian-SemiLight/actions/16s/transform-move.svg

<svg xmlns="http://www.w3.org/2000/svg" viewBox="0 0 16 16">
  <defs id="defs3051">
    <style type="text/css" id="current-color-scheme">
      .ColorScheme-Text {
        color:#4d4d4d;
      }
      </style>
  </defs>
 <path style="fill:currentColor;fill-opacity:1;stroke:none" 
       d="M 8 2 L 6 5 L 10 5 L 8 2 z M 5 6 L 2 8 L 5 10 L 5 6 z M 11 6 L 11 10 L 14 8 L 11 6 z M 8 7 C 7.4477153 7 7 7.4477153 7 8 C 7 8.5522847 7.4477153 9 8 9 C 8.5522847 9 9 8.5522847 9 8 C 9 7.4477153 8.5522847 7 8 7 z M 6 11 L 8 14 L 10 11 L 6 11 z "
     class="ColorScheme-Text"
     />
</svg>

<svg viewBox="0 0 16 16" xmlns="http://www.w3.org/2000/svg"><path d="m8 2-2 3h4zm-3 4-3 2 3 2zm6 0v4l3-2zm-3 1c-.5522847 0-1 .4477153-1 1s.4477153 1 1 1 1-.4477153 1-1-.4477153-1-1-1zm-2 4 2 3 2-3z" fill="#4d4d4d"/></svg>
